assets/icons/utility/engage.svg

<svg xmlns="http://www.w3.org/2000/svg" width="52" height="52" viewBox="0 0 52 52">
  <path fill="#fff" fill-rule="evenodd" d="M26.5,4.25 C39.301356,4.25 49.75,13.6384178 49.75,25.3183903 C49.75,36.9983628 39.301356,46.3867807 26.5,46.3867807 C24.8377011,46.3867807 23.1974628,46.2285805 21.6001365,45.9180487 L21.6001365,45.9180487 L21.113,45.817 L20.9701481,45.8930527 C18.9378605,46.9334978 15.6648477,47.7753318 11.0573216,48.4901817 L11.0573216,48.4901817 L10.5398777,48.5690905 L9.41174,48.732028 C7.68683822,48.9811565 6.69759037,46.8308991 8.00905671,45.6831155 C9.32400065,44.5322883 10.3234322,43.0226888 11.0065383,41.1279241 L11.0065383,41.1279241 L11.032,41.051 L10.7151344,40.7905779 C6.12018367,36.9425763 3.37660694,31.5495523 3.25427233,25.7254112 L3.25427233,25.7254112 L3.25,25.3183903 C3.25,13.6384178 13.698644,4.25 26.5,4.25 Z M33.5,31 L19.5,31 C18.3954305,31 17.5,31.8954305 17.5,33 C17.5,34.1045695 18.3954305,35 19.5,35 L19.5,35 L33.5,35 C34.6045695,35 35.5,34.1045695 35.5,33 C35.5,31.8954305 34.6045695,31 33.5,31 L33.5,31 Z M37.5,23.5 L15.5,23.5 C14.3954305,23.5 13.5,24.3954305 13.5,25.5 C13.5,26.6045695 14.3954305,27.5 15.5,27.5 L15.5,27.5 L37.5,27.5 C38.6045695,27.5 39.5,26.6045695 39.5,25.5 C39.5,24.3954305 38.6045695,23.5 37.5,23.5 L37.5,23.5 Z M33.5,16 L19.5,16 C18.3954305,16 17.5,16.8954305 17.5,18 C17.5,19.1045695 18.3954305,20 19.5,20 L19.5,20 L33.5,20 C34.6045695,20 35.5,19.1045695 35.5,18 C35.5,16.8954305 34.6045695,16 33.5,16 L33.5,16 Z" />
</svg>

<?xml version="1.0"?><svg xmlns="http://www.w3.org/2000/svg" width="52" height="52" viewBox="0 0 52 52"><path fill="#fff" fill-rule="evenodd" d="m26.5 4.3c12.8 0 23.3 9.3 23.3 21 0 11.7-10.5 21.1-23.3 21.1-1.7 0-3.3-0.2-4.9-0.5l-0.5-0.1-0.1 0.1c-2.1 1-5.3 1.9-9.9 2.6l-0.6 0.1-1.1 0.1c-1.7 0.3-2.7-1.9-1.4-3 1.3-1.2 2.3-2.7 3-4.6l0 0-0.3-0.3c-4.6-3.9-7.3-9.2-7.4-15.1l-0.1-0.4c0.1-11.7 10.5-21 23.3-21z m7 26.7h-14c-1.1 0-2 0.9-2 2s0.9 2 2 2h14c1.1 0 2-0.9 2-2s-0.9-2-2-2z m4-7.5h-22c-1.1 0-2 0.9-2 2s0.9 2 2 2h22c1.1 0 2-0.9 2-2s-0.9-2-2-2z m-4-7.5h-14c-1.1 0-2 0.9-2 2s0.9 2 2 2h14c1.1 0 2-0.9 2-2s-0.9-2-2-2z"></path></svg>
